projects/flag-game/flags/Grenada.svg

<svg viewBox="0 0 1000 600" xmlns="http://www.w3.org/2000/svg"><path d="m0 0h1000v600h-1000z" fill="#ce1126"/><g fill-rule="evenodd"><path d="m84 84h831.996094v431.996094h-831.996094zm0 0" fill="#007a5e"/><path d="m84 84h832l-832 432h832zm0 0" fill="#fcd116"/><path d="m571.996094 300c0 39.761719-32.234375 71.996094-71.996094 71.996094s-71.996094-32.234375-71.996094-71.996094 32.234375-71.996094 71.996094-71.996094 71.996094 32.234375 71.996094 71.996094zm0 0" fill="#ce1126"/><path d="m500 234-20.394531 62.769531 31.378906 10.195313zm0 0" fill="#fcd116"/><path d="m500 234 20.394531 62.769531-31.378906 10.195313zm0 0" fill="#fcd116"/><path d="m562.769531 279.605469h-66v33zm0 0" fill="#fcd116"/><path d="m562.769531 279.605469-53.394531 38.792969-19.398438-26.699219zm0 0" fill="#fcd116"/><path d="m538.792969 353.394531-20.394531-62.769531-31.386719 10.199219zm0 0" fill="#fcd116"/><path d="m538.792969 353.394531-53.394531-38.792969 19.394531-26.695312zm0 0" fill="#fcd116"/><path d="m461.207031 353.394531 53.394531-38.792969-19.394531-26.695312zm0 0" fill="#fcd116"/><path d="m461.207031 353.394531 20.394531-62.769531 31.386719 10.199219zm0 0" fill="#fcd116"/><path d="m437.230469 279.605469 53.394531 38.792969 19.398438-26.699219zm0 0" fill="#fcd116"/><path d="m437.230469 279.605469h66v33zm0 0" fill="#fcd116"/><path d="m300 3.003906-12.050781 37.082032 18.542969 6.03125zm0 0" fill="#fcd116"/><path d="m300 3.003906 12.050781 37.082032-18.542969 6.03125zm0 0" fill="#fcd116"/><path d="m337.09375 29.949219h-39.007812v19.496093zm0 0" fill="#fcd116"/><path d="m337.09375 29.949219-31.550781 22.921875-11.46875-15.777344zm0 0" fill="#fcd116"/><path d="m322.925781 73.550781-12.054687-37.09375-18.546875 6.03125zm0 0" fill="#fcd116"/><path d="m322.925781 73.550781-31.554687-22.921875 11.460937-15.773437zm0 0" fill="#fcd116"/><path d="m277.074219 73.550781 31.554687-22.921875-11.460937-15.773437zm0 0" fill="#fcd116"/><path d="m277.074219 73.550781 12.054687-37.09375 18.546875 6.03125zm0 0" fill="#fcd116"/><path d="m262.90625 29.949219 31.550781 22.921875 11.46875-15.777344zm0 0" fill="#fcd116"/><path d="m262.90625 29.949219h39.007812v19.496093zm0 0" fill="#fcd116"/><path d="m500 3.003906-12.050781 37.082032 18.542969 6.03125zm0 0" fill="#fcd116"/><path d="m500 3.003906 12.050781 37.082032-18.542969 6.03125zm0 0" fill="#fcd116"/><path d="m537.09375 29.949219h-39.007812v19.496093zm0 0" fill="#fcd116"/><path d="m537.09375 29.949219-31.550781 22.921875-11.46875-15.777344zm0 0" fill="#fcd116"/><path d="m522.925781 73.550781-12.054687-37.09375-18.546875 6.03125zm0 0" fill="#fcd116"/><path d="m522.925781 73.550781-31.554687-22.921875 11.460937-15.773437zm0 0" fill="#fcd116"/><path d="m477.074219 73.550781 31.554687-22.921875-11.460937-15.773437zm0 0" fill="#fcd116"/><path d="m477.074219 73.550781 12.054687-37.09375 18.546875 6.03125zm0 0" fill="#fcd116"/><path d="m462.90625 29.949219 31.550781 22.921875 11.46875-15.777344zm0 0" fill="#fcd116"/><path d="m462.90625 29.949219h39.007812v19.496093zm0 0" fill="#fcd116"/><path d="m700 3.003906-12.050781 37.082032 18.542969 6.03125zm0 0" fill="#fcd116"/><path d="m700 3.003906 12.050781 37.082032-18.542969 6.03125zm0 0" fill="#fcd116"/><path d="m737.09375 29.949219h-39.007812v19.496093zm0 0" fill="#fcd116"/><path d="m737.09375 29.949219-31.550781 22.921875-11.46875-15.777344zm0 0" fill="#fcd116"/><path d="m722.925781 73.550781-12.054687-37.09375-18.546875 6.03125zm0 0" fill="#fcd116"/><path d="m722.925781 73.550781-31.554687-22.921875 11.460937-15.773437zm0 0" fill="#fcd116"/><path d="m677.074219 73.550781 31.554687-22.921875-11.460937-15.773437zm0 0" fill="#fcd116"/><path d="m677.074219 73.550781 12.054687-37.09375 18.546875 6.03125zm0 0" fill="#fcd116"/><path d="m662.90625 29.949219 31.550781 22.921875 11.46875-15.777344zm0 0" fill="#fcd116"/><path d="m662.90625 29.949219h39.007812v19.496093zm0 0" fill="#fcd116"/><path d="m300 519.003906-12.050781 37.082032 18.542969 6.03125zm0 0" fill="#fcd116"/><path d="m300 519.003906 12.050781 37.082032-18.542969 6.03125zm0 0" fill="#fcd116"/><path d="m337.09375 545.949219h-39.007812v19.496093zm0 0" fill="#fcd116"/><path d="m337.09375 545.949219-31.550781 22.921875-11.46875-15.78125zm0 0" fill="#fcd116"/><path d="m322.925781 589.550781-12.054687-37.09375-18.546875 6.03125zm0 0" fill="#fcd116"/><path d="m322.925781 589.550781-31.554687-22.925781 11.460937-15.769531zm0 0" fill="#fcd116"/><path d="m277.074219 589.550781 31.554687-22.925781-11.460937-15.769531zm0 0" fill="#fcd116"/><path d="m277.074219 589.550781 12.054687-37.09375 18.546875 6.03125zm0 0" fill="#fcd116"/><path d="m262.90625 545.949219 31.550781 22.921875 11.46875-15.78125zm0 0" fill="#fcd116"/><path d="m262.90625 545.949219h39.007812v19.496093zm0 0" fill="#fcd116"/><path d="m500 519.003906-12.050781 37.082032 18.542969 6.03125zm0 0" fill="#fcd116"/><path d="m500 519.003906 12.050781 37.082032-18.542969 6.03125zm0 0" fill="#fcd116"/><path d="m537.09375 545.949219h-39.007812v19.496093zm0 0" fill="#fcd116"/><path d="m537.09375 545.949219-31.550781 22.921875-11.46875-15.78125zm0 0" fill="#fcd116"/><path d="m522.925781 589.550781-12.054687-37.09375-18.546875 6.03125zm0 0" fill="#fcd116"/><path d="m522.925781 589.550781-31.554687-22.925781 11.460937-15.769531zm0 0" fill="#fcd116"/><path d="m477.074219 589.550781 31.554687-22.925781-11.460937-15.769531zm0 0" fill="#fcd116"/><path d="m477.074219 589.550781 12.054687-37.09375 18.546875 6.03125zm0 0" fill="#fcd116"/><path d="m462.90625 545.949219 31.550781 22.921875 11.46875-15.78125zm0 0" fill="#fcd116"/><path d="m462.90625 545.949219h39.007812v19.496093zm0 0" fill="#fcd116"/><path d="m700 519.003906-12.050781 37.082032 18.542969 6.03125zm0 0" fill="#fcd116"/><path d="m700 519.003906 12.050781 37.082032-18.542969 6.03125zm0 0" fill="#fcd116"/><path d="m737.09375 545.949219h-39.007812v19.496093zm0 0" fill="#fcd116"/><path d="m737.09375 545.949219-31.550781 22.921875-11.46875-15.78125zm0 0" fill="#fcd116"/><path d="m722.925781 589.550781-12.054687-37.09375-18.546875 6.03125zm0 0" fill="#fcd116"/><path d="m722.925781 589.550781-31.554687-22.925781 11.460937-15.769531zm0 0" fill="#fcd116"/><path d="m677.074219 589.550781 31.554687-22.925781-11.460937-15.769531zm0 0" fill="#fcd116"/><path d="m677.074219 589.550781 12.054687-37.09375 18.546875 6.03125zm0 0" fill="#fcd116"/><path d="m662.90625 545.949219 31.550781 22.921875 11.46875-15.78125zm0 0" fill="#fcd116"/><path d="m662.90625 545.949219h39.007812v19.496093zm0 0" fill="#fcd116"/><path d="m135.496094 300.824219c9.011718 16.777343 26.53125 35.03125 41.832031 41.453125.25-17.042969-5.792969-38.875-14.0625-56.273438zm0 0" fill="#ce1126"/><path d="m120.222656 243.261719c13.0625 27.222656-33.863281 92.15625 44.3125 107.382812-9.644531-13.160156-15.863281-34.882812-13.511718-52.320312 16.40625 6.234375 33.660156 24.496093 40.636718 38.460937 20.457032-74.300781-52.484375-69.785156-71.4375-93.523437zm0 0" fill="#fcd116"/></g></svg>

<?xml version="1.0" encoding="UTF-8"?>
<svg xmlns="http://www.w3.org/2000/svg" xmlns:xlink="http://www.w3.org/1999/xlink" viewBox="0 0 1000 600" version="1.1">
<g id="surface510">
<rect x="0" y="0" width="1000" height="600" style="fill:rgb(80.783081%,6.666565%,14.901733%);fill-opacity:1;stroke:none;"/>
<path style=" stroke:none;fill-rule:evenodd;fill:rgb(0%,47.842407%,36.862183%);fill-opacity:1;" d="M 84 84 L 915.996094 84 L 915.996094 515.996094 L 84 515.996094 Z M 84 84 "/>
<path style=" stroke:none;fill-rule:evenodd;fill:rgb(98.822021%,81.959534%,8.627319%);fill-opacity:1;" d="M 84 84 L 916 84 L 84 516 L 916 516 Z M 84 84 "/>
<path style=" stroke:none;fill-rule:evenodd;fill:rgb(80.783081%,6.666565%,14.901733%);fill-opacity:1;" d="M 571.996094 300 C 571.996094 339.761719 539.761719 371.996094 500 371.996094 C 460.238281 371.996094 428.003906 339.761719 428.003906 300 C 428.003906 260.238281 460.238281 228.003906 500 228.003906 C 539.761719 228.003906 571.996094 260.238281 571.996094 300 Z M 571.996094 300 "/>
<path style=" stroke:none;fill-rule:evenodd;fill:rgb(98.822021%,81.959534%,8.627319%);fill-opacity:1;" d="M 500 234 L 479.605469 296.769531 L 510.984375 306.964844 Z M 500 234 "/>
<path style=" stroke:none;fill-rule:evenodd;fill:rgb(98.822021%,81.959534%,8.627319%);fill-opacity:1;" d="M 500 234 L 520.394531 296.769531 L 489.015625 306.964844 Z M 500 234 "/>
<path style=" stroke:none;fill-rule:evenodd;fill:rgb(98.822021%,81.959534%,8.627319%);fill-opacity:1;" d="M 562.769531 279.605469 L 496.769531 279.605469 L 496.769531 312.605469 Z M 562.769531 279.605469 "/>
<path style=" stroke:none;fill-rule:evenodd;fill:rgb(98.822021%,81.959534%,8.627319%);fill-opacity:1;" d="M 562.769531 279.605469 L 509.375 318.398438 L 489.976562 291.699219 Z M 562.769531 279.605469 "/>
<path style=" stroke:none;fill-rule:evenodd;fill:rgb(98.822021%,81.959534%,8.627319%);fill-opacity:1;" d="M 538.792969 353.394531 L 518.398438 290.625 L 487.011719 300.824219 Z M 538.792969 353.394531 "/>
<path style=" stroke:none;fill-rule:evenodd;fill:rgb(98.822021%,81.959534%,8.627319%);fill-opacity:1;" d="M 538.792969 353.394531 L 485.398438 314.601562 L 504.792969 287.90625 Z M 538.792969 353.394531 "/>
<path style=" stroke:none;fill-rule:evenodd;fill:rgb(98.822021%,81.959534%,8.627319%);fill-opacity:1;" d="M 461.207031 353.394531 L 514.601562 314.601562 L 495.207031 287.90625 Z M 461.207031 353.394531 "/>
<path style=" stroke:none;fill-rule:evenodd;fill:rgb(98.822021%,81.959534%,8.627319%);fill-opacity:1;" d="M 461.207031 353.394531 L 481.601562 290.625 L 512.988281 300.824219 Z M 461.207031 353.394531 "/>
<path style=" stroke:none;fill-rule:evenodd;fill:rgb(98.822021%,81.959534%,8.627319%);fill-opacity:1;" d="M 437.230469 279.605469 L 490.625 318.398438 L 510.023438 291.699219 Z M 437.230469 279.605469 "/>
<path style=" stroke:none;fill-rule:evenodd;fill:rgb(98.822021%,81.959534%,8.627319%);fill-opacity:1;" d="M 437.230469 279.605469 L 503.230469 279.605469 L 503.230469 312.605469 Z M 437.230469 279.605469 "/>
<path style=" stroke:none;fill-rule:evenodd;fill:rgb(98.822021%,81.959534%,8.627319%);fill-opacity:1;" d="M 300 3.003906 L 287.949219 40.085938 L 306.492188 46.117188 Z M 300 3.003906 "/>
<path style=" stroke:none;fill-rule:evenodd;fill:rgb(98.822021%,81.959534%,8.627319%);fill-opacity:1;" d="M 300 3.003906 L 312.050781 40.085938 L 293.507812 46.117188 Z M 300 3.003906 "/>
<path style=" stroke:none;fill-rule:evenodd;fill:rgb(98.822021%,81.959534%,8.627319%);fill-opacity:1;" d="M 337.09375 29.949219 L 298.085938 29.949219 L 298.085938 49.445312 Z M 337.09375 29.949219 "/>
<path style=" stroke:none;fill-rule:evenodd;fill:rgb(98.822021%,81.959534%,8.627319%);fill-opacity:1;" d="M 337.09375 29.949219 L 305.542969 52.871094 L 294.074219 37.09375 Z M 337.09375 29.949219 "/>
<path style=" stroke:none;fill-rule:evenodd;fill:rgb(98.822021%,81.959534%,8.627319%);fill-opacity:1;" d="M 322.925781 73.550781 L 310.871094 36.457031 L 292.324219 42.488281 Z M 322.925781 73.550781 "/>
<path style=" stroke:none;fill-rule:evenodd;fill:rgb(98.822021%,81.959534%,8.627319%);fill-opacity:1;" d="M 322.925781 73.550781 L 291.371094 50.628906 L 302.832031 34.855469 Z M 322.925781 73.550781 "/>
<path style=" stroke:none;fill-rule:evenodd;fill:rgb(98.822021%,81.959534%,8.627319%);fill-opacity:1;" d="M 277.074219 73.550781 L 308.628906 50.628906 L 297.167969 34.855469 Z M 277.074219 73.550781 "/>
<path style=" stroke:none;fill-rule:evenodd;fill:rgb(98.822021%,81.959534%,8.627319%);fill-opacity:1;" d="M 277.074219 73.550781 L 289.128906 36.457031 L 307.675781 42.488281 Z M 277.074219 73.550781 "/>
<path style=" stroke:none;fill-rule:evenodd;fill:rgb(98.822021%,81.959534%,8.627319%);fill-opacity:1;" d="M 262.90625 29.949219 L 294.457031 52.871094 L 305.925781 37.09375 Z M 262.90625 29.949219 "/>
<path style=" stroke:none;fill-rule:evenodd;fill:rgb(98.822021%,81.959534%,8.627319%);fill-opacity:1;" d="M 262.90625 29.949219 L 301.914062 29.949219 L 301.914062 49.445312 Z M 262.90625 29.949219 "/>
<path style=" stroke:none;fill-rule:evenodd;fill:rgb(98.822021%,81.959534%,8.627319%);fill-opacity:1;" d="M 500 3.003906 L 487.949219 40.085938 L 506.492188 46.117188 Z M 500 3.003906 "/>
<path style=" stroke:none;fill-rule:evenodd;fill:rgb(98.822021%,81.959534%,8.627319%);fill-opacity:1;" d="M 500 3.003906 L 512.050781 40.085938 L 493.507812 46.117188 Z M 500 3.003906 "/>
<path style=" stroke:none;fill-rule:evenodd;fill:rgb(98.822021%,81.959534%,8.627319%);fill-opacity:1;" d="M 537.09375 29.949219 L 498.085938 29.949219 L 498.085938 49.445312 Z M 537.09375 29.949219 "/>
<path style=" stroke:none;fill-rule:evenodd;fill:rgb(98.822021%,81.959534%,8.627319%);fill-opacity:1;" d="M 537.09375 29.949219 L 505.542969 52.871094 L 494.074219 37.09375 Z M 537.09375 29.949219 "/>
<path style=" stroke:none;fill-rule:evenodd;fill:rgb(98.822021%,81.959534%,8.627319%);fill-opacity:1;" d="M 522.925781 73.550781 L 510.871094 36.457031 L 492.324219 42.488281 Z M 522.925781 73.550781 "/>
<path style=" stroke:none;fill-rule:evenodd;fill:rgb(98.822021%,81.959534%,8.627319%);fill-opacity:1;" d="M 522.925781 73.550781 L 491.371094 50.628906 L 502.832031 34.855469 Z M 522.925781 73.550781 "/>
<path style=" stroke:none;fill-rule:evenodd;fill:rgb(98.822021%,81.959534%,8.627319%);fill-opacity:1;" d="M 477.074219 73.550781 L 508.628906 50.628906 L 497.167969 34.855469 Z M 477.074219 73.550781 "/>
<path style=" stroke:none;fill-rule:evenodd;fill:rgb(98.822021%,81.959534%,8.627319%);fill-opacity:1;" d="M 477.074219 73.550781 L 489.128906 36.457031 L 507.675781 42.488281 Z M 477.074219 73.550781 "/>
<path style=" stroke:none;fill-rule:evenodd;fill:rgb(98.822021%,81.959534%,8.627319%);fill-opacity:1;" d="M 462.90625 29.949219 L 494.457031 52.871094 L 505.925781 37.09375 Z M 462.90625 29.949219 "/>
<path style=" stroke:none;fill-rule:evenodd;fill:rgb(98.822021%,81.959534%,8.627319%);fill-opacity:1;" d="M 462.90625 29.949219 L 501.914062 29.949219 L 501.914062 49.445312 Z M 462.90625 29.949219 "/>
<path style=" stroke:none;fill-rule:evenodd;fill:rgb(98.822021%,81.959534%,8.627319%);fill-opacity:1;" d="M 700 3.003906 L 687.949219 40.085938 L 706.492188 46.117188 Z M 700 3.003906 "/>
<path style=" stroke:none;fill-rule:evenodd;fill:rgb(98.822021%,81.959534%,8.627319%);fill-opacity:1;" d="M 700 3.003906 L 712.050781 40.085938 L 693.507812 46.117188 Z M 700 3.003906 "/>
<path style=" stroke:none;fill-rule:evenodd;fill:rgb(98.822021%,81.959534%,8.627319%);fill-opacity:1;" d="M 737.09375 29.949219 L 698.085938 29.949219 L 698.085938 49.445312 Z M 737.09375 29.949219 "/>
<path style=" stroke:none;fill-rule:evenodd;fill:rgb(98.822021%,81.959534%,8.627319%);fill-opacity:1;" d="M 737.09375 29.949219 L 705.542969 52.871094 L 694.074219 37.09375 Z M 737.09375 29.949219 "/>
<path style=" stroke:none;fill-rule:evenodd;fill:rgb(98.822021%,81.959534%,8.627319%);fill-opacity:1;" d="M 722.925781 73.550781 L 710.871094 36.457031 L 692.324219 42.488281 Z M 722.925781 73.550781 "/>
<path style=" stroke:none;fill-rule:evenodd;fill:rgb(98.822021%,81.959534%,8.627319%);fill-opacity:1;" d="M 722.925781 73.550781 L 691.371094 50.628906 L 702.832031 34.855469 Z M 722.925781 73.550781 "/>
<path style=" stroke:none;fill-rule:evenodd;fill:rgb(98.822021%,81.959534%,8.627319%);fill-opacity:1;" d="M 677.074219 73.550781 L 708.628906 50.628906 L 697.167969 34.855469 Z M 677.074219 73.550781 "/>
<path style=" stroke:none;fill-rule:evenodd;fill:rgb(98.822021%,81.959534%,8.627319%);fill-opacity:1;" d="M 677.074219 73.550781 L 689.128906 36.457031 L 707.675781 42.488281 Z M 677.074219 73.550781 "/>
<path style=" stroke:none;fill-rule:evenodd;fill:rgb(98.822021%,81.959534%,8.627319%);fill-opacity:1;" d="M 662.90625 29.949219 L 694.457031 52.871094 L 705.925781 37.09375 Z M 662.90625 29.949219 "/>
<path style=" stroke:none;fill-rule:evenodd;fill:rgb(98.822021%,81.959534%,8.627319%);fill-opacity:1;" d="M 662.90625 29.949219 L 701.914062 29.949219 L 701.914062 49.445312 Z M 662.90625 29.949219 "/>
<path style=" stroke:none;fill-rule:evenodd;fill:rgb(98.822021%,81.959534%,8.627319%);fill-opacity:1;" d="M 300 519.003906 L 287.949219 556.085938 L 306.492188 562.117188 Z M 300 519.003906 "/>
<path style=" stroke:none;fill-rule:evenodd;fill:rgb(98.822021%,81.959534%,8.627319%);fill-opacity:1;" d="M 300 519.003906 L 312.050781 556.085938 L 293.507812 562.117188 Z M 300 519.003906 "/>
<path style=" stroke:none;fill-rule:evenodd;fill:rgb(98.822021%,81.959534%,8.627319%);fill-opacity:1;" d="M 337.09375 545.949219 L 298.085938 545.949219 L 298.085938 565.445312 Z M 337.09375 545.949219 "/>
<path style=" stroke:none;fill-rule:evenodd;fill:rgb(98.822021%,81.959534%,8.627319%);fill-opacity:1;" d="M 337.09375 545.949219 L 305.542969 568.871094 L 294.074219 553.089844 Z M 337.09375 545.949219 "/>
<path style=" stroke:none;fill-rule:evenodd;fill:rgb(98.822021%,81.959534%,8.627319%);fill-opacity:1;" d="M 322.925781 589.550781 L 310.871094 552.457031 L 292.324219 558.488281 Z M 322.925781 589.550781 "/>
<path style=" stroke:none;fill-rule:evenodd;fill:rgb(98.822021%,81.959534%,8.627319%);fill-opacity:1;" d="M 322.925781 589.550781 L 291.371094 566.625 L 302.832031 550.855469 Z M 322.925781 589.550781 "/>
<path style=" stroke:none;fill-rule:evenodd;fill:rgb(98.822021%,81.959534%,8.627319%);fill-opacity:1;" d="M 277.074219 589.550781 L 308.628906 566.625 L 297.167969 550.855469 Z M 277.074219 589.550781 "/>
<path style=" stroke:none;fill-rule:evenodd;fill:rgb(98.822021%,81.959534%,8.627319%);fill-opacity:1;" d="M 277.074219 589.550781 L 289.128906 552.457031 L 307.675781 558.488281 Z M 277.074219 589.550781 "/>
<path style=" stroke:none;fill-rule:evenodd;fill:rgb(98.822021%,81.959534%,8.627319%);fill-opacity:1;" d="M 262.90625 545.949219 L 294.457031 568.871094 L 305.925781 553.089844 Z M 262.90625 545.949219 "/>
<path style=" stroke:none;fill-rule:evenodd;fill:rgb(98.822021%,81.959534%,8.627319%);fill-opacity:1;" d="M 262.90625 545.949219 L 301.914062 545.949219 L 301.914062 565.445312 Z M 262.90625 545.949219 "/>
<path style=" stroke:none;fill-rule:evenodd;fill:rgb(98.822021%,81.959534%,8.627319%);fill-opacity:1;" d="M 500 519.003906 L 487.949219 556.085938 L 506.492188 562.117188 Z M 500 519.003906 "/>
<path style=" stroke:none;fill-rule:evenodd;fill:rgb(98.822021%,81.959534%,8.627319%);fill-opacity:1;" d="M 500 519.003906 L 512.050781 556.085938 L 493.507812 562.117188 Z M 500 519.003906 "/>
<path style=" stroke:none;fill-rule:evenodd;fill:rgb(98.822021%,81.959534%,8.627319%);fill-opacity:1;" d="M 537.09375 545.949219 L 498.085938 545.949219 L 498.085938 565.445312 Z M 537.09375 545.949219 "/>
<path style=" stroke:none;fill-rule:evenodd;fill:rgb(98.822021%,81.959534%,8.627319%);fill-opacity:1;" d="M 537.09375 545.949219 L 505.542969 568.871094 L 494.074219 553.089844 Z M 537.09375 545.949219 "/>
<path style=" stroke:none;fill-rule:evenodd;fill:rgb(98.822021%,81.959534%,8.627319%);fill-opacity:1;" d="M 522.925781 589.550781 L 510.871094 552.457031 L 492.324219 558.488281 Z M 522.925781 589.550781 "/>
<path style=" stroke:none;fill-rule:evenodd;fill:rgb(98.822021%,81.959534%,8.627319%);fill-opacity:1;" d="M 522.925781 589.550781 L 491.371094 566.625 L 502.832031 550.855469 Z M 522.925781 589.550781 "/>
<path style=" stroke:none;fill-rule:evenodd;fill:rgb(98.822021%,81.959534%,8.627319%);fill-opacity:1;" d="M 477.074219 589.550781 L 508.628906 566.625 L 497.167969 550.855469 Z M 477.074219 589.550781 "/>
<path style=" stroke:none;fill-rule:evenodd;fill:rgb(98.822021%,81.959534%,8.627319%);fill-opacity:1;" d="M 477.074219 589.550781 L 489.128906 552.457031 L 507.675781 558.488281 Z M 477.074219 589.550781 "/>
<path style=" stroke:none;fill-rule:evenodd;fill:rgb(98.822021%,81.959534%,8.627319%);fill-opacity:1;" d="M 462.90625 545.949219 L 494.457031 568.871094 L 505.925781 553.089844 Z M 462.90625 545.949219 "/>
<path style=" stroke:none;fill-rule:evenodd;fill:rgb(98.822021%,81.959534%,8.627319%);fill-opacity:1;" d="M 462.90625 545.949219 L 501.914062 545.949219 L 501.914062 565.445312 Z M 462.90625 545.949219 "/>
<path style=" stroke:none;fill-rule:evenodd;fill:rgb(98.822021%,81.959534%,8.627319%);fill-opacity:1;" d="M 700 519.003906 L 687.949219 556.085938 L 706.492188 562.117188 Z M 700 519.003906 "/>
<path style=" stroke:none;fill-rule:evenodd;fill:rgb(98.822021%,81.959534%,8.627319%);fill-opacity:1;" d="M 700 519.003906 L 712.050781 556.085938 L 693.507812 562.117188 Z M 700 519.003906 "/>
<path style=" stroke:none;fill-rule:evenodd;fill:rgb(98.822021%,81.959534%,8.627319%);fill-opacity:1;" d="M 737.09375 545.949219 L 698.085938 545.949219 L 698.085938 565.445312 Z M 737.09375 545.949219 "/>
<path style=" stroke:none;fill-rule:evenodd;fill:rgb(98.822021%,81.959534%,8.627319%);fill-opacity:1;" d="M 737.09375 545.949219 L 705.542969 568.871094 L 694.074219 553.089844 Z M 737.09375 545.949219 "/>
<path style=" stroke:none;fill-rule:evenodd;fill:rgb(98.822021%,81.959534%,8.627319%);fill-opacity:1;" d="M 722.925781 589.550781 L 710.871094 552.457031 L 692.324219 558.488281 Z M 722.925781 589.550781 "/>
<path style=" stroke:none;fill-rule:evenodd;fill:rgb(98.822021%,81.959534%,8.627319%);fill-opacity:1;" d="M 722.925781 589.550781 L 691.371094 566.625 L 702.832031 550.855469 Z M 722.925781 589.550781 "/>
<path style=" stroke:none;fill-rule:evenodd;fill:rgb(98.822021%,81.959534%,8.627319%);fill-opacity:1;" d="M 677.074219 589.550781 L 708.628906 566.625 L 697.167969 550.855469 Z M 677.074219 589.550781 "/>
<path style=" stroke:none;fill-rule:evenodd;fill:rgb(98.822021%,81.959534%,8.627319%);fill-opacity:1;" d="M 677.074219 589.550781 L 689.128906 552.457031 L 707.675781 558.488281 Z M 677.074219 589.550781 "/>
<path style=" stroke:none;fill-rule:evenodd;fill:rgb(98.822021%,81.959534%,8.627319%);fill-opacity:1;" d="M 662.90625 545.949219 L 694.457031 568.871094 L 705.925781 553.089844 Z M 662.90625 545.949219 "/>
<path style=" stroke:none;fill-rule:evenodd;fill:rgb(98.822021%,81.959534%,8.627319%);fill-opacity:1;" d="M 662.90625 545.949219 L 701.914062 545.949219 L 701.914062 565.445312 Z M 662.90625 545.949219 "/>
<path style=" stroke:none;fill-rule:evenodd;fill:rgb(80.783081%,6.666565%,14.901733%);fill-opacity:1;" d="M 135.496094 300.824219 C 144.507812 317.601562 162.027344 335.855469 177.328125 342.277344 C 177.578125 325.234375 171.535156 303.402344 163.265625 286.003906 Z M 135.496094 300.824219 "/>
<path style=" stroke:none;fill-rule:evenodd;fill:rgb(98.822021%,81.959534%,8.627319%);fill-opacity:1;" d="M 120.222656 243.261719 C 133.285156 270.484375 86.359375 335.417969 164.535156 350.644531 C 154.890625 337.484375 148.671875 315.761719 151.023438 298.324219 C 167.429688 304.558594 184.683594 322.820312 191.660156 336.785156 C 212.117188 262.484375 139.175781 267 120.222656 243.261719 Z M 120.222656 243.261719 "/>
</g>
</svg>
